svgs/sharp-solid/briefcase-blank.svg

<svg xmlns="http://www.w3.org/2000/svg" viewBox="0 0 512 512"><!--! Font Awesome Pro 6.6.0 by @fontawesome - https://fontawesome.com License - https://fontawesome.com/license (Commercial License) Copyright 2024 Fonticons, Inc. --><path d="M152 0L128 0l0 24 0 72L0 96 0 480l512 0 0-384L384 96l0-72 0-24L360 0 152 0zM336 96L176 96l0-48 160 0 0 48z"/></svg>

<svg xmlns="http://www.w3.org/2000/svg" viewBox="0 0 512 512"><!--! Font Awesome Pro 6.4.0 by @fontawesome - https://fontawesome.com License - https://fontawesome.com/license (Commercial License) Copyright 2023 Fonticons, Inc. --><path d="M152 0H128V24 96H0V480H512V96H384V24 0H360 152zM336 96H176V48H336V96z"/></svg>
